assets/decentraland/original.svg

<svg viewBox="0 0 24 24" xmlns="http://www.w3.org/2000/svg" fill="#FF2D55"><path d="m16.9246 18.9776h3.1342l-3.1342-3.7778zm-8.507-9.4221v6.6221h5.5072zm3.6266-9.5555c-6.6265 0-12.0442 5.3333-12.0442 11.9555 0 1.4666.2687 2.8888.7612 4.1777l4.6565-5.5555 2.6863-3.2444 6.537 7.8221 1.8805-2.2666 4.9252 5.8666h.403c1.388-1.9555 2.1491-4.311 2.1491-6.8444.0897-6.5777-5.328-11.911-11.9546-11.911zm-3.9849 6.2666c-.9402 0-1.6566-.7555-1.6566-1.6444s.7612-1.6444 1.6566-1.6444c.9403 0 1.6567.7555 1.6567 1.6444s-.7164 1.6444-1.6567 1.6444zm8.731 5.3777c-1.8358 0-3.3133-1.4666-3.3133-3.2888s1.4775-3.2889 3.3133-3.2889c1.8357 0 3.3133 1.4667 3.3133 3.2889.0447 1.8222-1.4776 3.2888-3.3133 3.2888zm-3.985 5.7334h-11.6411c.2686.5333.582 1.0222.8955 1.511h9.4473zm-8.3277 4.0443h14.9993c.4925-.4 1.0298-.8889 1.3432-1.2444h-17.6858c.4477.4444.8954.8889 1.3432 1.2444zm7.5668 2.5777c1.97 0 3.8506-.4444 5.5072-1.2889h-11.0145c1.6566.8446 3.4924 1.2892 5.5072 1.2892z"/></svg>

<svg xmlns="http://www.w3.org/2000/svg" fill="#ff2d55" viewBox="0 0 24 24"><path d="M16.925 18.978h3.134L16.925 15.2zM8.418 9.555v6.623h5.507zM12.044 0C5.418 0 0 5.333 0 11.955c0 1.467.269 2.89.761 4.178l4.657-5.555 2.686-3.245 6.537 7.822 1.88-2.266 4.926 5.866h.403c1.388-1.955 2.149-4.31 2.149-6.844C24.089 5.333 18.67 0 12.044 0M8.06 6.267c-.94 0-1.656-.756-1.656-1.645s.76-1.644 1.656-1.644c.94 0 1.657.755 1.657 1.644S9 6.267 8.059 6.267m8.731 5.377c-1.835 0-3.313-1.466-3.313-3.289s1.478-3.288 3.313-3.288a3.294 3.294 0 0 1 3.314 3.288c.044 1.823-1.478 3.29-3.314 3.29m-3.985 5.734H1.165c.268.533.581 1.022.895 1.51h9.447zm-8.327 4.044h14.999c.492-.4 1.03-.889 1.343-1.244H3.134c.448.444.896.888 1.343 1.244zM12.044 24c1.97 0 3.851-.445 5.508-1.29H6.537c1.657.845 3.493 1.29 5.507 1.29z"/></svg>
